X:2
T:Alma Redemptoris Mater
T:Cantus part
C:Tom\'as Luis de Victoria (1548-1611)
O:Florigelium sacrarum cantionum, Petri Phalesij, 1609
L:1/8
M:4/2
%%measurenb 0
%%squarebreve
%%scale 0.8
%%newpage 1
%%continueall true
%%footer "$T (Cantus)	Page $P	Gumbleton Music, 2011\n"
K:F clef=treble
z4 F4  A3 B c4 | d4 c4 =B4 c4 | z2 G2 A4 B4 c4 |
w:Al - - - - - - ma Re-dem-pto-ris 
F8 G4 z2 c2-|c2 c2 F4  G4 A4 | c4 d4 c8 |
w:Ma-ter, Re - dem-pto - ris Ma - ter
z4 c4  d3 d e4 | f3 edcBA G2 E2 FGAF | G4 A2 A2 =B3 B c4 |
w:quae per-vi-a coe - - - - - - - - - - - - li, quae per-vi-a
%19
d6 =B2  c4 c4 | z4 z2 c2 d2 e2 f4-|f2 e2 d4  c8 |
w:coe - - li por-ta ma - - - - nes,
%25
z4 z2 c2  d2 e2 f4-|f2 e2 d4 c2 A2 B2 c2 |d6 c2  B2 G2 c4 |
w:     por-ta ma - - - -      nes, por-ta ma - - - - nes.
%31
c8  =B4 c4-|c4 d4  c4 z4 | z2 G2G2 G2 c4  c4 |
w:Et stel-la_ ma-ris, et stel-la ma-ris,
%37
z4 f8 e4 | f4 d4  e2 e2 f4 | f2 e2 d2 c2  B2 G2 z2 c2 |
w: et stel-la ma-ris suc-cur-re ca-den - - ti, suc-
%43
d4 d2 c2 B3 cde f2-|f2 e2 z4  c3 c d4 |e3 e f4 z8|
w:cur-re ca-den -----ti. Sur-ge-re, sur-ge-re
%49
z8 c4 d4 | c2 ABcA B3 AAG/F/ G2 G2 |A4 A4  B4 c4 |
w:qui cu-rat, po --------- pu-lo, qui cu-rat,
%55
c6 c2  c8 ||[Q:"Secunda pars"]c6 B2  A2 G2 ABcA | BAAG/F/ G4 A4 z4 |
w:po-pu-lo: Tu quae ge-nu-i ---------sti,
%61
z16 |	f6 e2  d2 c2 B2 A2 | c8  A2 c2 c4 |
w:tu quae ge-nu-i -- sti, na-tu-
%67
A2 F2 f3 edc d3 cBA | G2 F2 G4  A3 B c4 | z2 A2 f3 e  d8 |
w:ra mi-ran ------------ te, mi-ran -- 
%73
  c8  z2 A2 B2 d2-|d2 c2  B2 A2  c4 c4 | z4 c8 d4 |
w:te,    tu-um san - ctum Ge-ni-to-rem, tu- um
%79
  e4  c2  c2 d2  e2 f4- |f4 e8 c4-|c4 d8 d4-|
w:san-ctum Ge-ni -  to   - rem, vir - go pri-
%85
d4 c2 A2  B2 c2 dc c2-|c2 =B2 c2 A2 G3 G A4 | z4 z2 F2  G2 A2 B4-| 
w:- us ac po-ste - -------ri-us, ac po - ste-
%91
 B2 B2 A4-A8 | z4 z2 c4 c2 d4 |=B2 B2 c4  c4 z2 d2-|
w:- ri-us,_          Ga- bri-  e-lis ab o-re, Ga-
%97
dd d2 c2 G2  c4 c4-|c4 z4  F8 | c8 c8 |
w:- bri-e-lis ab o-re._ Su - mens
%103
z8  B8-|B4 c8 d4-|d8-d4 c4-|c4 z2 c2-\
w:  il -   lud A  - - ve,_ pec-
%110
c2 B2 A4 | A8 z2 d4 c2 |B3 A G4  A4 z4 | z4  A4  =B4 c4 |
w:- ca-to-rum mi-se-re -- re, pec-ca-to-
A2 c4 c2  d4 G2 c2-|cBAG A3 B  c2 d4 c2 | B6 AG A8 |]
w:rum mi-se-re-re, mi -------- se-re --re.

